symbols/web/filter_2/materialsymbolssharp/filter_2_wght200gradN25_48px.svg

<svg xmlns="http://www.w3.org/2000/svg" height="48" width="48"><path d="M21.7 29.5h9.75V28H23.2v-6.8h8.25v-9.75H21.7v1.5h8.2v6.75h-8.2Zm-9.6 5.4V6.05h28.85V34.9Zm1.5-1.5h25.85V7.55H13.6Zm-6.55 6.55V12.3h1.5v26.15H34.7v1.5Zm6.55-6.55V7.55 33.4Z"/></svg>

<svg xmlns="http://www.w3.org/2000/svg" height="48" width="48"><path d="M21.7 29.5H31.45V28H23.2V21.2H31.45V11.45H21.7V12.95H29.9V19.7H21.7ZM12.1 34.9V6.05H40.95V34.9ZM13.6 33.4H39.45V7.55H13.6ZM7.05 39.95V12.3H8.55V38.45H34.7V39.95ZM13.6 33.4V7.55V33.4Z"/></svg>
